usr/share/icons/biglinux-icons-material/scalable/mimetypes/application-illustrator.svg

<svg width="24" height="24" viewBox="0 0 24 24" fill="none" xmlns="http://www.w3.org/2000/svg">
<rect x="1" y="1" width="22" height="22" rx="6.6" fill="url(#paint0_radial_1_51)"/>
<path d="M7.6184 15.1592L6.63963 18.8761C6.61485 18.9752 6.57769 19 6.45378 19H4.63254C4.50863 19 4.48386 18.9628 4.50863 18.8141L8.0273 6.49906C8.08924 6.27605 8.1264 6.07782 8.1512 5.47074C8.1512 5.38402 8.18837 5.34686 8.25031 5.34686H10.852C10.9387 5.34686 10.9759 5.37164 11.0007 5.47074L14.9405 18.8389C14.9653 18.938 14.9405 19 14.8414 19H12.7848C12.6857 19 12.6237 18.9752 12.599 18.8885L11.5706 15.1593L7.6184 15.1592ZM11.0627 13.1521C10.7158 11.7769 9.89812 8.77858 9.5884 7.32907H9.56362C9.30345 8.77863 8.64682 11.2316 8.12645 13.1521H11.0627ZM16.638 6.26371C16.638 5.47079 17.1956 5 17.9018 5C18.6575 5 19.1655 5.50795 19.1655 6.26371C19.1655 7.08142 18.6327 7.52743 17.877 7.52743C17.1584 7.52743 16.638 7.08142 16.638 6.26371ZM16.7867 9.07614C16.7867 8.97704 16.8239 8.92746 16.9354 8.92746H18.8805C18.9796 8.92746 19.0292 8.96463 19.0292 9.07614V18.8513C19.0292 18.9504 19.0044 19 18.8805 19H16.9601C16.8362 19 16.7991 18.9381 16.7991 18.8389V9.07602L16.7867 9.07614Z" fill="#FAFAFA"/>
<defs>
<radialGradient id="paint0_radial_1_51" cx="0" cy="0" r="1" gradientUnits="userSpaceOnUse" gradientTransform="translate(17.5 1) rotate(116.565) scale(24.5967)">
<stop stop-color="#FC7A00"/>
<stop offset="1" stop-color="#391E04"/>
</radialGradient>
</defs>
</svg>

<svg xmlns="http://www.w3.org/2000/svg" width="24" height="24" fill="none"><rect width="22" height="22" x="1" y="1" fill="url(#a)" rx="6.6"/><path fill="#FAFAFA" d="m7.618 15.16-.978 3.716c-.025.1-.062.124-.186.124H4.633c-.124 0-.15-.037-.124-.186L8.027 6.5c.062-.223.1-.421.124-1.028 0-.087.037-.124.1-.124h2.601c.087 0 .124.025.149.124l3.94 13.368c.024.099 0 .161-.1.161h-2.056c-.1 0-.161-.025-.186-.111l-1.028-3.73H7.618Zm3.445-2.008c-.347-1.375-1.165-4.373-1.475-5.823h-.024c-.26 1.45-.917 3.903-1.438 5.823h2.937Zm5.575-6.888c0-.793.558-1.264 1.264-1.264.755 0 1.264.508 1.264 1.264 0 .817-.533 1.263-1.289 1.263-.719 0-1.239-.446-1.239-1.263Zm.149 2.812c0-.099.037-.149.148-.149h1.946c.099 0 .148.038.148.15v9.774c0 .1-.025.149-.148.149h-1.92c-.125 0-.162-.062-.162-.161V9.076h-.012Z"/><defs><radialGradient id="a" cx="0" cy="0" r="1" gradientTransform="rotate(116.565 8.441 5.908) scale(24.5967)" gradientUnits="userSpaceOnUse"><stop stop-color="#FC7A00"/><stop offset="1" stop-color="#391E04"/></radialGradient></defs></svg>
